X: 29288
T: New Rigged Ship, The
R: jig
M: 6/8
K: Dmajor
|:A|dcd d2 f|dcd d2 f|ecA ABc|ecA ABc|
dcd d2 f|dcd d2 f|ecA ABc|1 d3d2:|2 d3 f2 g||
|:a2 f a2 f|ded dfa|b2 g b2 g|efe efg|
a2 f a2 f|dcd d2 f|ecA ABc|1 d3 f2 g:|2 d3d2||

